assets/Honeybee/Flat/honeybee_flat.svg

<svg width="32" height="32" viewBox="0 0 32 32" fill="none" xmlns="http://www.w3.org/2000/svg">
<path d="M5.43 13.3609C5.15 13.3609 4.93 13.1409 4.93 12.8609V12.0009C4.93 11.2909 4.53 10.6509 3.89 10.3309L3.22 9.95086C2.97 9.83086 2.87 9.53086 2.99 9.28086C3.11 9.03086 3.41 8.93086 3.66 9.05086L4.34 9.43086C5.32 9.92086 5.93 10.9009 5.93 12.0009V12.8609C5.93 13.1409 5.71 13.3609 5.43 13.3609Z" fill="#212121"/>
<path d="M24.3 27.001H22.83C21.81 27.001 20.99 26.171 20.99 25.161V21.801C20.99 21.391 21.33 21.051 21.74 21.051C22.15 21.051 22.49 21.391 22.49 21.801V25.151C22.49 25.341 22.64 25.491 22.83 25.491H24.3C24.71 25.491 25.05 25.831 25.05 26.241C25.05 26.651 24.71 27.001 24.3 27.001Z" fill="#212121"/>
<path d="M9.79999 28.981C9.60999 28.981 9.41999 28.911 9.26999 28.761C8.97999 28.471 8.97999 27.991 9.26999 27.701L9.91999 27.051C10.28 26.691 10.48 26.201 10.48 25.691V23.801C10.48 23.391 10.82 23.051 11.23 23.051C11.64 23.051 11.98 23.391 11.98 23.801V25.691C11.98 26.601 11.62 27.461 10.98 28.111L10.33 28.761C10.18 28.911 9.98999 28.981 9.79999 28.981Z" fill="#212121"/>
<path d="M18.64 28.761C18.79 28.911 18.98 28.981 19.17 28.981C19.36 28.981 19.55 28.911 19.7 28.761C19.99 28.471 19.99 27.991 19.7 27.701L19.05 27.051C18.69 26.691 18.49 26.201 18.49 25.691V23.801C18.49 23.391 18.15 23.051 17.74 23.051C17.33 23.051 16.99 23.391 16.99 23.801V25.691C16.99 26.601 17.34 27.461 17.99 28.111L18.64 28.761Z" fill="#212121"/>
<path d="M28 16.3608L29.78 16.7408C30.07 16.8008 30.07 17.2108 29.78 17.2808L28 17.6608L27 17L28 16.3608Z" fill="#212121"/>
<path d="M17 25.001H19.11C19.7574 25.001 20.3925 24.9115 21 24.7411L23.5 17L21 9.28089C20.3925 9.11047 19.7574 9.021 19.11 9.021H17L15 17L17 25.001Z" fill="#FFB02E"/>
<path d="M12 9.14654C10.0597 9.49848 8.36278 10.5504 7.18115 12.0314L7.5 13.5V20.5L7.19434 22.0071C8.37538 23.4794 10.0669 24.5248 12 24.8755L14.5 17L12 9.14654Z" fill="#FFB02E"/>
<path d="M24.5 17L26 13.6231L28 16.3775V17.6445L26 20.3989L24.5 17Z" fill="#FFB02E"/>
<path d="M16.98 9.021H13.21C12.79 9.031 12.38 9.081 11.98 9.151V24.871C12.38 24.941 12.79 24.991 13.21 25.001H16.98V9.021Z" fill="#533566"/>
<path d="M8.37 13.381C8.37 12.631 7.77 12.031 7.03 12.021H6.95C4.21 12.021 2 14.261 2 17.021C2 19.781 4.22 22.021 6.95 22.021H7.03C7.78 22.001 8.37 21.401 8.37 20.651V13.381Z" fill="#533566"/>
<path d="M25.04 12.301L25.98 13.601V20.401L25.04 21.701C24.1 23.201 22.64 24.271 20.98 24.731V9.271C22.65 9.741 24.1 10.801 25.04 12.301Z" fill="#533566"/>
<path d="M14.94 4.74094C15.78 3.66094 17.09 2.97094 18.57 3.00094C20.96 3.04094 22.92 4.99094 22.98 7.38094C23.04 9.91094 21.01 11.9809 18.49 11.9809H10.9C10.35 11.9809 10.04 11.3509 10.36 10.9109L14.86 4.85094C14.88 4.82094 14.9 4.80094 14.92 4.77094L14.94 4.74094Z" fill="#AEDDFF"/>
<path d="M5.44 18.001C5.99229 18.001 6.44 17.5533 6.44 17.001C6.44 16.4487 5.99229 16.001 5.44 16.001C4.88772 16.001 4.44 16.4487 4.44 17.001C4.44 17.5533 4.88772 18.001 5.44 18.001Z" fill="#212121"/>
</svg>

<svg xmlns="http://www.w3.org/2000/svg" width="32" height="32" fill="none"><path fill="#212121" d="M5.43 13.36c-.28 0-.5-.22-.5-.5V12c0-.71-.4-1.35-1.04-1.67l-.67-.38a.5.5 0 1 1 .44-.9l.68.38c.98.49 1.59 1.47 1.59 2.57v.86c0 .28-.22.5-.5.5ZM24.3 27.001h-1.47c-1.02 0-1.84-.83-1.84-1.84v-3.36c0-.41.34-.75.75-.75s.75.34.75.75v3.35c0 .19.15.34.34.34h1.47c.41 0 .75.34.75.75s-.34.76-.75.76ZM9.8 28.981c-.19 0-.38-.07-.53-.22a.754.754 0 0 1 0-1.06l.65-.65c.36-.36.56-.85.56-1.36v-1.89c0-.41.34-.75.75-.75s.75.34.75.75v1.89c0 .91-.36 1.77-1 2.42l-.65.65c-.15.15-.34.22-.53.22ZM18.64 28.761c.15.15.34.22.53.22s.38-.07.53-.22c.29-.29.29-.77 0-1.06l-.65-.65c-.36-.36-.56-.85-.56-1.36v-1.89c0-.41-.34-.75-.75-.75s-.75.34-.75.75v1.89c0 .91.35 1.77 1 2.42l.65.65ZM28 16.36l1.78.38c.29.06.29.47 0 .54l-1.78.38-1-.66 1-.64Z"/><path fill="#FFB02E" d="M17 25.001h2.11c.647 0 1.282-.09 1.89-.26L23.5 17 21 9.28a6.994 6.994 0 0 0-1.89-.259H17L15 17l2 8.001ZM12 9.147a7.994 7.994 0 0 0-4.819 2.884L7.5 13.5v7l-.306 1.507A7.994 7.994 0 0 0 12 24.875L14.5 17 12 9.147ZM24.5 17l1.5-3.377 2 2.755v1.267l-2 2.754L24.5 17Z"/><path fill="#533566" d="M16.98 9.021h-3.77c-.42.01-.83.06-1.23.13v15.72c.4.07.81.12 1.23.13h3.77V9.021ZM8.37 13.381c0-.75-.6-1.35-1.34-1.36h-.08c-2.74 0-4.95 2.24-4.95 5s2.22 5 4.95 5h.08c.75-.02 1.34-.62 1.34-1.37v-7.27ZM25.04 12.301l.94 1.3v6.8l-.94 1.3c-.94 1.5-2.4 2.57-4.06 3.03V9.271c1.67.47 3.12 1.53 4.06 3.03Z"/><path fill="#AEDDFF" d="M14.94 4.74A4.466 4.466 0 0 1 18.57 3c2.39.04 4.35 1.99 4.41 4.38a4.49 4.49 0 0 1-4.49 4.6H10.9c-.55 0-.86-.63-.54-1.07l4.5-6.06c.02-.03.04-.05.06-.08l.02-.03Z"/><path fill="#212121" d="M5.44 18.001a1 1 0 1 0 0-2 1 1 0 0 0 0 2Z"/></svg>
